src/images/std-icons/std-recent_questions.svg

<svg xmlns="http://www.w3.org/2000/svg" width="512" height="512" viewBox="0 0 512 512">
  <title>recent questions</title>
  <path fill="#000" fill-rule="nonzero" d="M376.746667,177.92 C349.845083,151.271794 314.899367,134.248881 277.333333,129.493333 L277.333333,85.3333333 L298.666667,85.3333333 C310.448741,85.3333333 320,75.7820747 320,64 C320,52.2179253 310.448741,42.6666667 298.666667,42.6666667 L213.333333,42.6666667 C201.551259,42.6666667 192,52.2179253 192,64 C192,75.7820747 201.551259,85.3333333 213.333333,85.3333333 L234.666667,85.3333333 L234.666667,129.493333 C197.100633,134.248881 162.154917,151.271794 135.253333,177.92 C129.84195,183.331383 127.728565,191.218645 129.709268,198.610732 C131.689972,206.002818 137.463849,211.776695 144.855935,213.757398 C152.248022,215.738102 160.135284,213.624716 165.546667,208.213333 C202.141869,171.572562 257.209443,160.592223 305.05932,180.394853 C352.909198,200.197483 384.112634,246.881003 384.112634,298.666667 C384.112634,350.45233 352.909198,397.135851 305.05932,416.93848 C257.209443,436.74111 202.141869,425.760771 165.546667,389.12 C157.181394,380.754727 143.618606,380.754727 135.253334,389.12 C126.888061,397.485273 126.888061,411.04806 135.253333,419.413333 C201.939876,486.099874 310.060123,486.099873 376.746665,419.413332 C443.433207,352.72679 443.433208,244.606543 376.746667,177.92 Z"/>
  <path fill="#000" fill-rule="nonzero" d="M213.333333 341.333333C213.333333 329.551259 203.782075 320 192 320L64 320C52.2179253 320 42.6666667 329.551259 42.6666667 341.333333 42.6666667 353.115408 52.2179253 362.666667 64 362.666667L192 362.666667C203.782075 362.666667 213.333333 353.115408 213.333333 341.333333zM64 277.333333L234.666667 277.333333C246.448741 277.333333 256 267.782075 256 256 256 244.217925 246.448741 234.666667 234.666667 234.666667L64 234.666667C52.2179253 234.666667 42.6666667 244.217925 42.6666667 256 42.6666667 267.782075 52.2179253 277.333333 64 277.333333z"/>
</svg>

<svg xmlns="http://www.w3.org/2000/svg" viewBox="0 0 512 512">
  <title>
    recent questions
  </title>
  <path d="M376.75 177.92a171.95 171.95 0 0 0-99.42-48.43V85.33h21.34a21.33 21.33 0 0 0 0-42.66h-85.34a21.33 21.33 0 0 0 0 42.66h21.34v44.16a171.95 171.95 0 0 0-99.42 48.43 21.42 21.42 0 0 0 30.3 30.3 128 128 0 1 1 0 180.9 21.42 21.42 0 0 0-30.3 30.3c66.69 66.68 174.81 66.68 241.5 0 66.68-66.7 66.68-174.81 0-241.5z"/>
  <path d="M213.33 341.33A21.33 21.33 0 0 0 192 320H64a21.33 21.33 0 0 0 0 42.67h128a21.33 21.33 0 0 0 21.33-21.34zM64 277.33h170.67a21.33 21.33 0 1 0 0-42.66H64a21.33 21.33 0 1 0 0 42.66z"/>
</svg>
